!!!Genre:	Mazltov (Dobranotsh)
!!!Mode:	Minor
!!!Listening/dance:	listening
!!!:	*B-:
!!!One_Mode:	no
!!!Orig_tonic: G
**kern
*I"P1
*clefG2
*k[b-e-]
*g:
*M2/4
*>A
=1
(16qqdd/LL
16qqeen/
16qqff#X/JJ
8ggL)
8gJ
4b-
=2
16.aLL
32dk
16.f#X
32gJJk
4g
=3
16gLL
16a
16b-
16ccJJ
16ddLL
16ee-
16cc
16ee-JJ
=4
4.dd
(16qqcc/LL
16qqdd/JJ
16ccLL)
16b-JJ
=5
16ddLL
(16gg
16bb-)
16ggJJ
16ccLL
(16gg
16aa)
16ccJJ
=6
(16b-LL
16dd)
16ff
16ddJJ
(8.ccTL
48b-LL
48a
48b-JJJ)
=7
(16b-LL
16ddJ)
24ffL
24een
24ddJJ
24ddLL
24cc#X
24b-
24b-
24a
24gJJ
=8
4g
4G
=9:|!|:
*>B
(16ddLL
16ggJ)
24bb-L
24aa
24ggJJ
4gg
=10
(16ggLL
16bb-J)
24dddL
24ccc#X
24bb-JJ
4bb-
=11
(16bb-LL
16dddJ)
24fffL
24eeen
24dddJJ
(24dddLL
24ccc#X
24bb-J
8dddJ)
=12
24dddLL
24ccc#X
24bb-J
24bb-L
24aa
24ggJJ
4ddd
=13
(16ddLL
16ggJ)
24bb-L
24aa
24ggJJ
4gg
=14
(16ggLL
16bb-J)
24dddL
24ccc#X
24bb-JJ
4bb-
=15
(16bb-LL
16dddJ)
24fffL
24eeen
24dddJJ
24dddLL
24ccc#X
24bb-J
8dddJ
*>B1
=16
32dddLLL
32ccc#XJ
16bb-J
32bb-LL
32aaJ
16ggJJ
8..ggL
32ddJkk
*>B2
=:|!
32dddLLL
32ccc#XJ
16bb-J
32bb-LL
32aaJ
16ggJJ
16r
=17||
*>bM
*B-:
!LO:TX:a:i:t=Bb-major
16fLL
16b-
16ddJJ
*>C
=18!|:
[4ff
16ffLL]
16ee-
16dd
16ee-JJ
=19
4dd
(16qqcc/LL
16qqdd/JJ
8ccL)
8b-J
=20
8ffL
8ggJ
16aa-XLL
16gg
16ff
16eenJJ
=21
4.ff
8fff
=22
(32fffLLL
32eee-
32ddd
32cccJJ
32eee-LL
32ddd
32ccc
32bb-JJJ
32dddLLL
32ccc
32bb-
32aaJJ
32cccLL
32bb-
32aa
32ggJJJ
=23
32bb-LLL
32aa
32gg
32ffJJ
32aaLL
32gg
32ff
32ee-JJJ
32ggLLL
32ff
32ee-
32ddJJ
32ffLL
32ee-
32dd
32ccJJJ)
=24
16ccLL
16dd
16ee-
16eenJJ
(16ffLL
16gg)
(16cc
16ee-XJJ)
=25
4.dd
(8qdd/
16ccLL)
16b-JJ
=26
16b-LL
(16ccc
16ddd)
16b-JJ
16aLL
(16bbn
16ccc)
16aJJ
=27
16ggLL
16aa
16bb-
16ggJJ
16ffLL
16ee-
16dd
16ccJJ
=28
(16b-LL
16a)
(16a
16ggJJ)
(16ggLL
16ff)
(16a
16ccJJ)
*>C1
=29
(16ccLL
16b-J)
[8b-J
16b-LL]
16f
16b-
16ddJJ
*>C2
=30:|!
(16ccLL
16b-JJ)
4b-
8cc
*>eM
*g:
!LO:TX:a:i:t=G-minor
=31!|:
*>D
(16dd-XLL
16cc)
((8qeen/
16dd-)
16ccJJ)
(16dd-LL
16ff)
(16eeX
16dd-JJ)
=32
16dd-XLL
16ccJJ
4cct
(8qcc/
16b-LL)
16aJJ
=33
((8qcc/
16b-LL)
16a)
((8qcc/
16b-)
16aJJ)
(16b-LL
16cc)
(16f
16a-XJJ)
=34
4g
4gg
=35
(24bb-LL
24aa
24aa-X
24gg
24ff#X
24ffnJJ
32eenLLL
32ee-X
32dd
32cc#XJJ
32ccnLL
32bn
32b-X)
32aJJJ
=36
(16b-LL
16dd)
(16ff
16ddJJ)
(8ccTL
24b-L
24a
24b-JJ)
=37
(16b-LL
16ddJ)
24ffL
24een
24ddJJ
(24ddLL
24cc#X
24b-J
24b-L
24a
24gJJ)
*>D1
=38
4.g
8ccn
*>D2
=39:|!
8g
8d 8cc 8ff#X
8G 8d 8b- 8gg
8r
==
*-
